X: 1
T: Allan Ramsey
M: 6/8
L: 1/8
R: jig
K: Amix
|:e2A c2A|ceA c2A|dBG GBd|gdB G2f|
e2A c2A|ceA c2A|ece eca|ecA A3:|
|:Ace aeg|fdf edc|BdB GBd|gdB G2B|
[1 Ace aeg|fdf ecA|cde eca|ecA A3:|
[2 e2A c2A|ceA c2A|ece eca|ecA A3||
